static/img/icon-phone.svg

<?xml version="1.0" ?><svg height="23px" version="1.1" viewBox="0 0 11 23" width="11px" xmlns="http://www.w3.org/2000/svg" xmlns:sketch="http://www.bohemiancoding.com/sketch/ns" xmlns:xlink="http://www.w3.org/1999/xlink"><title/><defs><path d="M0,2.00308167 L0,20.0308166 C0,22.0338983 2.00000001,22.0338983 2.00000001,22.0338983 L8.99999999,22.0338983 C8.99999999,22.0338983 11,22.0338983 11,20.0308166 L11,2.00308167 C11,0 8.99999999,0 8.99999999,0 L2.00000001,0 C2.00000001,0 0,0 0,2.00308167 Z M1,2.5 L1,18.5 L10,18.5 L10,2.5 L1,2.5 L1,2.5 Z M5.5,21.1999969 C6.05228477,21.1999969 6.5,20.7522817 6.5,20.1999969 C6.5,19.6477122 6.05228477,19.1999969 5.5,19.1999969 C4.94771523,19.1999969 4.5,19.6477122 4.5,20.1999969 C4.5,20.7522817 4.94771523,21.1999969 5.5,21.1999969 L5.5,21.1999969 Z M4.13277718,1 C4.05944636,1 4.00000001,1.09655358 4.00000001,1.2211029 L4.00000001,1.27966755 C4.00000001,1.4017793 4.05992614,1.50077042 4.13277718,1.50077042 L6.86722284,1.50077042 C6.94055366,1.50077042 7.00000001,1.40421684 7.00000001,1.27966755 L7.00000001,1.2211029 C7.00000001,1.09899114 6.94007388,1 6.86722284,1 L4.13277718,1 L4.13277718,1 Z" id="path-1"/></defs><g fill="none" fill-rule="evenodd" id="miu" stroke="none" stroke-width="1"><g id="device_iPhone_smart-phone_vertical_glyph"><use fill="#000000" fill-rule="evenodd" xlink:href="#path-1"/><use fill="none" xlink:href="#path-1"/></g></g></svg>

<?xml version="1.0" encoding="utf-8"?>
<!-- Generator: Adobe Illustrator 16.0.3, SVG Export Plug-In . SVG Version: 6.00 Build 0)  -->
<!DOCTYPE svg PUBLIC "-//W3C//DTD SVG 1.1 Tiny//EN" "http://www.w3.org/Graphics/SVG/1.1/DTD/svg11-tiny.dtd">
<svg version="1.1" baseProfile="tiny" id="Layer_1" xmlns:sketch="http://www.bohemiancoding.com/sketch/ns"
	 xmlns="http://www.w3.org/2000/svg" xmlns:xlink="http://www.w3.org/1999/xlink" x="0px" y="0px" width="11px" height="23px"
	 viewBox="0 0 11 23" xml:space="preserve">
<title></title>
<path fill="#499534" d="M9,0H2c0,0-2,0-2,2.003v18.028c0,2.002,2,2.002,2,2.002h7c0,0,2,0,2-2.002V2.003C11,0,9,0,9,0z M4,1.221
	C4,1.097,4.06,1,4.133,1h2.734C6.939,1,7,1.099,7,1.221V1.28c0,0.125-0.06,0.221-0.133,0.221H4.133C4.06,1.501,4,1.402,4,1.28V1.221
	z M5.5,21.2c-0.552,0-1-0.448-1-1s0.448-1,1-1c0.553,0,1,0.448,1,1S6.053,21.2,5.5,21.2z M10,18.5H1v-16h9V18.5z"/>
<g display="none">
	<path id="path-1_1_" display="inline" fill="none" d="M0,2.003v18.028c0,2.002,2,2.002,2,2.002h7c0,0,2,0,2-2.002V2.003
		C11,0,9,0,9,0H2C2,0,0,0,0,2.003z M1,2.5v16h9v-16H1L1,2.5z M5.5,21.2c0.553,0,1-0.448,1-1s-0.447-1-1-1c-0.552,0-1,0.448-1,1
		S4.948,21.2,5.5,21.2L5.5,21.2z M4.133,1C4.06,1,4,1.097,4,1.221V1.28c0,0.122,0.06,0.221,0.133,0.221h2.734
		C6.94,1.501,7,1.404,7,1.28V1.221C7,1.099,6.939,1,6.867,1H4.133L4.133,1z"/>
</g>
</svg>
